svgs/sharp-solid/car-bus.svg

<svg xmlns="http://www.w3.org/2000/svg" viewBox="0 0 640 512"><!--! Font Awesome Pro 6.6.0 by @fontawesome - https://fontawesome.com License - https://fontawesome.com/license (Commercial License) Copyright 2024 Fonticons, Inc. --><path d="M384 38.4S299 0 192 0S0 38.4 0 38.4L0 96s0 0 0 0L0 416l48 0 0 64 80 0 0-64 64 0 0-160 39.2 0 10.7-32L208 224l0-128 112 0 0 32 64 0 0-64 0-25.6zM320 160l-23.1 0-7.3 21.9-14 42.1-21.3 64L224 288l0 160s0 0 0 0l0 64 80 0 0-64 256 0 0 64 80 0 0-64 0-160-30.3 0L574.4 181.9 567.1 160 544 160l-160 0-64 0zm64 64l136.9 0 21.3 64L384 288l-62.3 0 21.3-64 40.9 0zM176 96l0 128L64 224 64 96l112 0zM56 304a24 24 0 1 1 48 0 24 24 0 1 1 -48 0zm248 40a24 24 0 1 1 0 48 24 24 0 1 1 0-48zm232 24a24 24 0 1 1 48 0 24 24 0 1 1 -48 0z"/></svg>

<svg xmlns="http://www.w3.org/2000/svg" viewBox="0 0 640 512"><!--! Font Awesome Pro 6.4.2 by @fontawesome - https://fontawesome.com License - https://fontawesome.com/license (Commercial License) Copyright 2023 Fonticons, Inc. --><path d="M384 38.4S299 0 192 0S0 38.4 0 38.4V96H0V416H48v64h80V416h64l0-160h39.2l10.7-32H208V96H320v32h64V64l0-25.6zM320 160H296.9l-7.3 21.9-14 42.1-21.3 64H224l0 160h0v64h80V448H560v64h80V448l0-160H609.7L574.4 181.9 567.1 160H544 384 320zm64 64H520.9l21.3 64H384 321.7l21.3-64H384zM176 96V224H64V96H176zM56 304a24 24 0 1 1 48 0 24 24 0 1 1 -48 0zm248 40a24 24 0 1 1 0 48 24 24 0 1 1 0-48zm232 24a24 24 0 1 1 48 0 24 24 0 1 1 -48 0z"/></svg>
